X:52
T:Jan Smet
C:Traditioneel
O:Nederokkerzeel (Vlaanderen)
Z:Bert Van Vreckem <http://flanders.blackmill.net/music/>
N:Voorspel (AABB) ad lib.
N:De dans kan naar believen herhaald worden. Er wordt echter steeds ge\"eindigd tijdens
N:de A-muziek, waarbij de muzikanten op een willekeurige maat ophouden met spelen en er
N:pret in hebben de dansers zonder muziek te zien verder dansen.
Q:1/2=116
M:2/2
L:1/4
K:G
P:Voorspel
d|"G"Bzzd|Bzzd|"D7"fecA|"G"G2zd||
P:A
!segno!"G"Bzzd|Bzzd|"D7"edcB|(d2c)c|Azzc|Azzc|fecA|1("G"d2G)d:|2"G"d2G||
P:B
d/d/|:"G"dBG d/d/|dBGd|edcB|("D7"d2c) c/c/|cAF c/c/|cAFc|fecA|1("G"B2G) d/d/:|2"G"G2z!D.S.!d|]
